icons/thumb-down.svg

<svg width="24" height="24" viewBox="0 0 24 24" fill="none" xmlns="http://www.w3.org/2000/svg">
<path d="M21.2857 13H17V3H21.2857C21.4752 3 21.6568 3.08104 21.7908 3.2253C21.9247 3.36956 22 3.56522 22 3.76923V12.2308C22 12.4348 21.9247 12.6304 21.7908 12.7747C21.6568 12.919 21.4752 13 21.2857 13V13Z" stroke="#1E293B" stroke-width="2" stroke-linecap="round" stroke-linejoin="round"/>
<path d="M17 13.1739L12.9967 21C12.5761 21 12.1596 20.919 11.7711 20.7617C11.3825 20.6044 11.0294 20.3738 10.7321 20.0831C10.4347 19.7924 10.1988 19.4473 10.0378 19.0675C9.87686 18.6877 9.79402 18.2807 9.79402 17.8696V15.5217H3.60133C3.37427 15.5217 3.14981 15.4745 2.94284 15.3833C2.73586 15.292 2.55111 15.1588 2.40085 14.9924C2.25058 14.826 2.13823 14.6303 2.07125 14.4182C2.00427 14.2062 1.9842 13.9826 2.01236 13.7624L3.21336 4.37108C3.26177 3.99252 3.44996 3.64428 3.74256 3.39181C4.03516 3.13933 4.41202 3 4.80232 3H17" stroke="#1E293B" stroke-width="2" stroke-linecap="round" stroke-linejoin="round"/>
</svg>

<svg
  width="24"
  height="24"
  viewBox="0 0 24 24"
  xmlns="http://www.w3.org/2000/svg"
  fill="none"
  stroke="currentColor"
  stroke-width="2"
  stroke-linecap="round"
  stroke-linejoin="round"
>
  <path d="M21.286 13H17V3h4.286a.69.69 0 0 1 .505.225.8.8 0 0 1 .209.544v8.462a.8.8 0 0 1-.21.544.69.69 0 0 1-.504.225z" />
  <path d="M17 13.174L12.997 21c-.42 0-.837-.081-1.226-.238a3.207 3.207 0 0 1-1.039-.679 3.128 3.128 0 0 1-.694-1.015 3.07 3.07 0 0 1-.244-1.198v-2.348H3.601c-.227 0-.451-.047-.658-.139a1.6 1.6 0 0 1-.542-.39 1.531 1.531 0 0 1-.388-1.23l1.2-9.392c.049-.378.237-.727.53-.98C4.035 3.14 4.412 3 4.803 3H17" />
</svg>
